X:4
T:Les Retroglisseurs
C:Andy Hornby 1997
I:abc2nwc
M:5/8
L:1/16
K:C
A3ce2 d4|efe2d2 e2c2|A2d2c2 B4|Bcd2g2 e4|
A3ce2 d4|efe2d2 e2c2|A2d2c2 B4|dcB2G2 A4:|
|:e3cA2 B4|cdc2B2 A4|E2F2G2 A4|dcB2G2 A4|
e3cA2 B4|cdc2B2 A4|E2F2G2 A4|G2F2D2 E4:|
%%newpage
%%vskip 2cm
